img/svg/form-label-icons/calendar-ico.svg

<svg width="20" height="20" viewBox="0 0 20 20" fill="none" xmlns="http://www.w3.org/2000/svg">
<path d="M15.0781 8.98438C15.5096 8.98438 15.8594 8.6346 15.8594 8.20312C15.8594 7.77165 15.5096 7.42188 15.0781 7.42188C14.6467 7.42188 14.2969 7.77165 14.2969 8.20312C14.2969 8.6346 14.6467 8.98438 15.0781 8.98438Z" fill="#4C51CC"/>
<path d="M16.875 1.5625H15.8594V0.78125C15.8594 0.349766 15.5096 0 15.0781 0C14.6466 0 14.2969 0.349766 14.2969 0.78125V1.5625H10.7422V0.78125C10.7422 0.349766 10.3924 0 9.96094 0C9.52945 0 9.17969 0.349766 9.17969 0.78125V1.5625H5.66406V0.78125C5.66406 0.349766 5.3143 0 4.88281 0C4.45133 0 4.10156 0.349766 4.10156 0.78125V1.5625H3.125C1.40188 1.5625 0 2.96438 0 4.6875V16.875C0 18.5981 1.40188 20 3.125 20H9.10156C9.53305 20 9.88281 19.6502 9.88281 19.2188C9.88281 18.7873 9.53305 18.4375 9.10156 18.4375H3.125C2.26344 18.4375 1.5625 17.7366 1.5625 16.875V4.6875C1.5625 3.82594 2.26344 3.125 3.125 3.125H4.10156V3.90625C4.10156 4.33773 4.45133 4.6875 4.88281 4.6875C5.3143 4.6875 5.66406 4.33773 5.66406 3.90625V3.125H9.17969V3.90625C9.17969 4.33773 9.52945 4.6875 9.96094 4.6875C10.3924 4.6875 10.7422 4.33773 10.7422 3.90625V3.125H14.2969V3.90625C14.2969 4.33773 14.6466 4.6875 15.0781 4.6875C15.5096 4.6875 15.8594 4.33773 15.8594 3.90625V3.125H16.875C17.7366 3.125 18.4375 3.82594 18.4375 4.6875V9.14062C18.4375 9.57211 18.7873 9.92188 19.2188 9.92188C19.6502 9.92188 20 9.57211 20 9.14062V4.6875C20 2.96438 18.5981 1.5625 16.875 1.5625Z" fill="#4C51CC"/>
<path d="M15.2734 10.5469C12.6672 10.5469 10.5469 12.6672 10.5469 15.2734C10.5469 17.8797 12.6672 20 15.2734 20C17.8797 20 20 17.8797 20 15.2734C20 12.6672 17.8797 10.5469 15.2734 10.5469ZM15.2734 18.4375C13.5288 18.4375 12.1094 17.0181 12.1094 15.2734C12.1094 13.5287 13.5288 12.1094 15.2734 12.1094C17.0181 12.1094 18.4375 13.5287 18.4375 15.2734C18.4375 17.0181 17.0181 18.4375 15.2734 18.4375Z" fill="#4C51CC"/>
<path d="M16.4062 14.4922H16.0547V13.6719C16.0547 13.2404 15.7049 12.8906 15.2734 12.8906C14.842 12.8906 14.4922 13.2404 14.4922 13.6719V15.2734C14.4922 15.7049 14.842 16.0547 15.2734 16.0547H16.4062C16.8377 16.0547 17.1875 15.7049 17.1875 15.2734C17.1875 14.842 16.8377 14.4922 16.4062 14.4922Z" fill="#4C51CC"/>
<path d="M11.6797 8.98438C12.1112 8.98438 12.4609 8.6346 12.4609 8.20312C12.4609 7.77165 12.1112 7.42188 11.6797 7.42188C11.2482 7.42188 10.8984 7.77165 10.8984 8.20312C10.8984 8.6346 11.2482 8.98438 11.6797 8.98438Z" fill="#4C51CC"/>
<path d="M8.28125 12.3828C8.71272 12.3828 9.0625 12.033 9.0625 11.6016C9.0625 11.1701 8.71272 10.8203 8.28125 10.8203C7.84978 10.8203 7.5 11.1701 7.5 11.6016C7.5 12.033 7.84978 12.3828 8.28125 12.3828Z" fill="#4C51CC"/>
<path d="M4.88281 8.98438C5.31428 8.98438 5.66406 8.6346 5.66406 8.20312C5.66406 7.77165 5.31428 7.42188 4.88281 7.42188C4.45134 7.42188 4.10156 7.77165 4.10156 8.20312C4.10156 8.6346 4.45134 8.98438 4.88281 8.98438Z" fill="#4C51CC"/>
<path d="M4.88281 12.3828C5.31428 12.3828 5.66406 12.033 5.66406 11.6016C5.66406 11.1701 5.31428 10.8203 4.88281 10.8203C4.45134 10.8203 4.10156 11.1701 4.10156 11.6016C4.10156 12.033 4.45134 12.3828 4.88281 12.3828Z" fill="#4C51CC"/>
<path d="M4.88281 15.7812C5.31428 15.7812 5.66406 15.4315 5.66406 15C5.66406 14.5685 5.31428 14.2188 4.88281 14.2188C4.45134 14.2188 4.10156 14.5685 4.10156 15C4.10156 15.4315 4.45134 15.7812 4.88281 15.7812Z" fill="#4C51CC"/>
<path d="M8.28125 15.7812C8.71272 15.7812 9.0625 15.4315 9.0625 15C9.0625 14.5685 8.71272 14.2188 8.28125 14.2188C7.84978 14.2188 7.5 14.5685 7.5 15C7.5 15.4315 7.84978 15.7812 8.28125 15.7812Z" fill="#4C51CC"/>
<path d="M8.28125 8.98438C8.71272 8.98438 9.0625 8.6346 9.0625 8.20312C9.0625 7.77165 8.71272 7.42188 8.28125 7.42188C7.84978 7.42188 7.5 7.77165 7.5 8.20312C7.5 8.6346 7.84978 8.98438 8.28125 8.98438Z" fill="#4C51CC"/>
</svg>

<svg width="20" height="20" fill="none" xmlns="http://www.w3.org/2000/svg"><path d="M15.078 8.984a.781.781 0 100-1.562.781.781 0 000 1.562z" fill="#4C51CC"/><path d="M16.875 1.563h-1.016V.78a.781.781 0 00-1.562 0v.781h-3.555v-.78a.781.781 0 00-1.562 0v.78H5.664v-.78a.781.781 0 10-1.562 0v.78h-.977A3.129 3.129 0 000 4.688v12.188A3.129 3.129 0 003.125 20h5.977a.781.781 0 100-1.563H3.125c-.862 0-1.563-.7-1.563-1.562V4.687c0-.861.701-1.562 1.563-1.562h.977v.781a.781.781 0 101.562 0v-.781H9.18v.781a.781.781 0 101.562 0v-.781h3.555v.781a.781.781 0 101.562 0v-.781h1.016c.862 0 1.563.7 1.563 1.563V9.14a.781.781 0 001.562 0V4.687a3.129 3.129 0 00-3.125-3.125z" fill="#4C51CC"/><path d="M15.273 10.547a4.732 4.732 0 00-4.726 4.726A4.732 4.732 0 0015.273 20 4.732 4.732 0 0020 15.273a4.732 4.732 0 00-4.727-4.726zm0 7.89a3.168 3.168 0 01-3.164-3.164 3.168 3.168 0 013.164-3.164 3.168 3.168 0 013.165 3.164 3.168 3.168 0 01-3.165 3.165z" fill="#4C51CC"/><path d="M16.406 14.492h-.351v-.82a.781.781 0 00-1.563 0v1.601c0 .432.35.782.781.782h1.133a.781.781 0 000-1.563zM11.68 8.984a.781.781 0 100-1.562.781.781 0 000 1.562zm-3.399 3.399a.781.781 0 100-1.563.781.781 0 000 1.563zM4.883 8.984a.781.781 0 100-1.562.781.781 0 000 1.562zm0 3.399a.781.781 0 100-1.563.781.781 0 000 1.563zm0 3.398a.781.781 0 100-1.562.781.781 0 000 1.562zm3.398 0a.781.781 0 100-1.562.781.781 0 000 1.562zm0-6.797a.781.781 0 100-1.562.781.781 0 000 1.562z" fill="#4C51CC"/></svg>
